src/assets/filled/FtxToken.svg

<svg width="24" height="24" viewBox="0 0 24 24"  xmlns="http://www.w3.org/2000/svg">
<path d="M21 2H9C8.45 2 8 2.45 8 3V6C8 6.55 8.45 7 9 7H21C21.55 7 22 6.55 22 6V3C22 2.45 21.55 2 21 2Z" />
<path d="M11 17H8C7.45 17 7 17.45 7 18V21C7 21.55 7.45 22 8 22H11C11.55 22 12 21.55 12 21V18C12 17.45 11.55 17 11 17Z" />
<path d="M6 9.5H3C2.45 9.5 2 9.95 2 10.5V13.5C2 14.05 2.45 14.5 3 14.5H6C6.55 14.5 7 14.05 7 13.5V10.5C7 9.95 6.55 9.5 6 9.5Z" />
<path d="M17 9.64062H10.5C9.95 9.64062 9.5 10.0906 9.5 10.6406V13.3606C9.5 13.9106 9.95 14.3606 10.5 14.3606H17C17.55 14.3606 18 13.9106 18 13.3606V10.6406C18 10.0906 17.55 9.64062 17 9.64062Z" />
</svg>

<?xml version="1.0" encoding="UTF-8"?>
<svg width="24" height="24" viewBox="0 0 24 24" xmlns="http://www.w3.org/2000/svg">
 <path d="m21 2h-12c-0.55 0-1 0.45-1 1v3c0 0.55 0.45 1 1 1h12c0.55 0 1-0.45 1-1v-3c0-0.55-0.45-1-1-1z"/>
 <path d="m11 17h-3c-0.55 0-1 0.45-1 1v3c0 0.55 0.45 1 1 1h3c0.55 0 1-0.45 1-1v-3c0-0.55-0.45-1-1-1z"/>
 <path d="m6 9.5h-3c-0.55 0-1 0.45-1 1v3c0 0.55 0.45 1 1 1h3c0.55 0 1-0.45 1-1v-3c0-0.55-0.45-1-1-1z"/>
 <path d="m17 9.6406h-6.5c-0.55 0-1 0.44998-1 0.99998v2.72c0 0.55 0.45 1 1 1h6.5c0.55 0 1-0.45 1-1v-2.72c0-0.55-0.45-0.99998-1-0.99998z"/>
</svg>
